src/icons/svg/star.svg

<svg width="20" height="20" fill="none" xmlns="http://www.w3.org/2000/svg"><path d="M9.793 3.034c-.21.036-.476.185-.613.345-.061.072-.473.845-.915 1.718a76.721 76.721 0 0 1-.828 1.611c-.013.014-.826.14-1.805.28-1.109.158-1.848.278-1.957.319-.217.08-.484.332-.584.551-.058.125-.073.222-.074.459-.001.507-.025.475 1.491 1.916.72.684 1.313 1.269 1.319 1.3.005.032-.127.836-.295 1.787-.225 1.276-.3 1.772-.286 1.891.023.202.145.472.285.632.228.259.718.411 1.055.327.085-.022.884-.414 1.775-.872A97.49 97.49 0 0 1 10 14.467c.011 0 .748.374 1.639.831.891.458 1.69.85 1.775.872.462.116 1.002-.141 1.218-.579.174-.352.173-.359-.164-2.271-.168-.951-.3-1.755-.295-1.787.006-.031.599-.617 1.319-1.301 1.517-1.442 1.492-1.41 1.49-1.915 0-.249-.015-.329-.082-.467-.111-.229-.359-.463-.575-.543-.109-.041-.848-.161-1.957-.319-.979-.14-1.792-.266-1.806-.28a82.877 82.877 0 0 1-.827-1.611c-.452-.893-.854-1.646-.92-1.723-.221-.258-.653-.402-1.022-.34m.99 2.857c.689 1.369.786 1.542.95 1.71a.884.884 0 0 0 .346.242c.089.031.922.163 1.85.295.928.131 1.698.248 1.71.259.012.011-.54.552-1.226 1.203-1.105 1.047-1.261 1.207-1.351 1.388-.17.344-.166.398.164 2.245.162.908.292 1.655.287 1.661a58.25 58.25 0 0 1-1.573-.792c-1.073-.551-1.624-.816-1.753-.843-.329-.069-.426-.031-2.122.84-.858.441-1.566.801-1.573.801-.007 0 .12-.746.282-1.658.329-1.857.333-1.912.163-2.254-.089-.181-.246-.342-1.35-1.388-.686-.651-1.238-1.192-1.226-1.203.012-.011.782-.128 1.71-.259.928-.132 1.761-.264 1.85-.295a.884.884 0 0 0 .346-.242c.164-.168.261-.341.95-1.71.421-.837.774-1.523.783-1.523.009 0 .362.686.783 1.523" fill-rule="evenodd" fill="#000"/></svg>

<svg width="20" height="20" viewBox="0 0 20 20" fill="none" xmlns="http://www.w3.org/2000/svg"><path d="M9.793 3.034 C 9.583 3.070,9.317 3.219,9.180 3.379 C 9.119 3.451,8.707 4.224,8.265 5.097 C 7.823 5.969,7.451 6.695,7.437 6.708 C 7.424 6.722,6.611 6.848,5.632 6.988 C 4.523 7.146,3.784 7.266,3.675 7.307 C 3.458 7.387,3.191 7.639,3.091 7.858 C 3.033 7.983,3.018 8.080,3.017 8.317 C 3.016 8.824,2.992 8.792,4.508 10.233 C 5.228 10.917,5.821 11.502,5.827 11.533 C 5.832 11.565,5.700 12.369,5.532 13.320 C 5.307 14.596,5.232 15.092,5.246 15.211 C 5.269 15.413,5.391 15.683,5.531 15.843 C 5.759 16.102,6.249 16.254,6.586 16.170 C 6.671 16.148,7.470 15.756,8.361 15.298 C 9.252 14.841,9.989 14.467,10.000 14.467 C 10.011 14.467,10.748 14.841,11.639 15.298 C 12.530 15.756,13.329 16.148,13.414 16.170 C 13.876 16.286,14.416 16.029,14.632 15.591 C 14.806 15.239,14.805 15.232,14.468 13.320 C 14.300 12.369,14.168 11.565,14.173 11.533 C 14.179 11.502,14.772 10.916,15.492 10.232 C 17.009 8.790,16.984 8.822,16.982 8.317 C 16.982 8.068,16.967 7.988,16.900 7.850 C 16.789 7.621,16.541 7.387,16.325 7.307 C 16.216 7.266,15.477 7.146,14.368 6.988 C 13.389 6.848,12.576 6.722,12.562 6.708 C 12.549 6.695,12.177 5.970,11.735 5.097 C 11.283 4.204,10.881 3.451,10.815 3.374 C 10.594 3.116,10.162 2.972,9.793 3.034 M10.783 5.891 C 11.472 7.260,11.569 7.433,11.733 7.601 C 11.859 7.730,11.967 7.806,12.079 7.843 C 12.168 7.874,13.001 8.006,13.929 8.138 C 14.857 8.269,15.627 8.386,15.639 8.397 C 15.651 8.408,15.099 8.949,14.413 9.600 C 13.308 10.647,13.152 10.807,13.062 10.988 C 12.892 11.332,12.896 11.386,13.226 13.233 C 13.388 14.141,13.518 14.888,13.513 14.894 C 13.509 14.900,12.801 14.544,11.940 14.102 C 10.867 13.551,10.316 13.286,10.187 13.259 C 9.858 13.190,9.761 13.228,8.065 14.099 C 7.207 14.540,6.499 14.900,6.492 14.900 C 6.485 14.900,6.612 14.154,6.774 13.242 C 7.103 11.385,7.107 11.330,6.937 10.988 C 6.848 10.807,6.691 10.646,5.587 9.600 C 4.901 8.949,4.349 8.408,4.361 8.397 C 4.373 8.386,5.143 8.269,6.071 8.138 C 6.999 8.006,7.832 7.874,7.921 7.843 C 8.033 7.806,8.141 7.730,8.267 7.601 C 8.431 7.433,8.528 7.260,9.217 5.891 C 9.638 5.054,9.991 4.368,10.000 4.368 C 10.009 4.368,10.362 5.054,10.783 5.891 " stroke="none" fill-rule="evenodd" fill="black"></path></svg>
